svg/文件夹-公开.svg

<svg width="24" height="24" viewBox="0 0 24 24" fill="none" xmlns="http://www.w3.org/2000/svg"><rect x="-114.971" y="-115.81" width="334.406" height="150.877" stroke="#F97316"/><path d="M2 4.5V20.5L4.5 10.5H19.75V7.5C19.75 6.9477 19.3023 6.5 18.75 6.5H12L9.5 3.5H3C2.44771 3.5 2 3.94771 2 4.5Z" stroke="#0D131A" stroke-width="1.5" stroke-linecap="round" stroke-linejoin="round"/><path d="M20 20.5L22 10.5H4.40625L2 20.5H20Z" stroke="#0D131A" stroke-width="1.5" stroke-linecap="round" stroke-linejoin="round"/></svg>

<svg fill="none" viewBox="0 0 24 24"><path stroke="#0D131A" stroke-linecap="round" stroke-linejoin="round" stroke-width="1.5" d="M2 4.5v16l2.5-10h15.25v-3a1 1 0 0 0-1-1H12l-2.5-3H3a1 1 0 0 0-1 1"/><path stroke="#0D131A" stroke-linecap="round" stroke-linejoin="round" stroke-width="1.5" d="m20 20.5 2-10H4.406L2 20.5z"/></svg>
